**harm	**harte	**silbe	**silbe	**rhyme	**timestamp	**phrase	**leadinstrument	**kern
*M6/8	*M6/8	*	*	*	*	*	*	*
*	*	*	*	*	*	*	*	*
*	*	*	*	*	*	*	*	*
*C:	*C:	*	*	*	*	*	*	*C:
*	*	*	*	*	*	*	*	*
*	*	*	*	*	*	*	*	*
1r;	N	.	.	.	0	.	r	1r;
=1	=1	=1	=1	=1	=1	=1	=1	=1
*>Letter>A	*>Letter>A	*>Letter>A	*>Letter>A	*>Letter>A	*>Letter>A	*>Letter>A	*>Letter>A	*>Letter>A
*>Label>Intro	*>Label>Intro	*>Label>Intro	*>Label>Intro	*>Label>Intro	*>Label>Intro	*>Label>Intro	*>Label>Intro	*>Label>Intro
1.vi	A:min	.	.	.	1.802	newline	r	1.A 1.cc 1.ee
=2	=2	=2	=2	=2	=2	=2	=2	=2
1.Im7	C:7	.	.	.	5.258	.	r	1.C 1.e 1.g 1.b
=3	=3	=3	=3	=3	=3	=3	=3	=3
1.vi	A:min	.	Oh!	.	8.714	newline	r	1.A 1.cc 1.ee
.	.	.	_	.	.	.	.	.
.	.	.	_	.	.	.	.	.
=4	=4	=4	=4	=4	=4	=4	=4	=4
1.Im7	C:7	.	_	.	12.163	.	r	1.C 1.e 1.g 1.b
.	.	.	_	.	.	.	.	.
.	.	.	.	.	.	.	.	.
.	.	.	.	.	.	.	.	.
=5	=5	=5	=5	=5	=5	=5	=5	=5
1.vi	A:min	.	Oh!	.	15.612	newline	r	1.A 1.cc 1.ee
.	.	.	_	.	.	.	.	.
.	.	.	_	.	.	.	.	.
=6	=6	=6	=6	=6	=6	=6	=6	=6
1.Im7	C:7	.	_	.	18.979	.	r	1.C 1.e 1.g 1.b
.	.	.	_	.	.	.	.	.
.	.	.	.	.	.	.	.	.
.	.	.	.	.	.	.	.	.
=7	=7	=7	=7	=7	=7	=7	=7	=7
*>Letter>B	*>Letter>B	*>Letter>B	*>Letter>B	*>Letter>B	*>Letter>B	*>Letter>B	*>Letter>B	*>Letter>B
*>Label>Verse	*>Label>Verse	*>Label>Verse	*>Label>Verse	*>Label>Verse	*>Label>Verse	*>Label>Verse	*>Label>Verse	*>Label>Verse
1.vi	A:min	.	.	.	22.346	newline	voice	1.A 1.cc 1.ee
.	.	I	.	.	.	.	.	.
.	.	don't	.	.	.	.	.	.
.	.	_	.	.	.	.	.	.
.	.	mind!	.	.	.	.	.	.
.	.	_	.	.	.	.	.	.
.	.	_	.	.	.	.	.	.
.	.	.	I	.	.	.	.	.
.	.	.	don't	.	.	.	.	.
.	.	_	mind!	.	.	.	.	.
.	.	.	.	.	.	.	.	.
.	.	.	.	.	.	.	.	.
=8	=8	=8	=8	=8	=8	=8	=8	=8
1.Im7	C:7	.	.	.	25.783	.	voice	1.C 1.e 1.g 1.b
.	.	.	.	.	.	.	.	.
.	.	Your	.	.	.	.	.	.
.	.	love	.	A	.	.	.	.
.	.	_	.	.	.	.	.	.
.	.	.	.	.	.	.	.	.
=9	=9	=9	=9	=9	=9	=9	=9	=9
1.vi	A:min	.	.	.	29.219	newline	voice	1.A 1.cc 1.ee
.	.	I	.	.	.	.	.	.
.	.	don't	.	.	.	.	.	.
.	.	_	.	.	.	.	.	.
.	.	mind!	.	.	.	.	.	.
.	.	_	.	.	.	.	.	.
.	.	_	.	.	.	.	.	.
.	.	_	I	.	.	.	.	.
.	.	.	don't	.	.	.	.	.
.	.	.	mind!	.	.	.	.	.
.	.	.	.	.	.	.	.	.
.	.	.	.	.	.	.	.	.
=10	=10	=10	=10	=10	=10	=10	=10	=10
*	*	*	*	*	*	*	*	*
1.Im7	C:7	.	.	.	32.749	.	voice	1.C 1.e 1.g 1.b
.	.	The	.	.	.	.	.	.
.	.	one	.	.	.	.	.	.
.	.	you're	.	.	.	.	.	.
.	.	_	.	.	.	.	.	.
.	.	thin-	.	.	.	.	.	.
.	.	-king	.	.	.	.	.	.
.	.	of	.	A	.	.	.	.
.	.	_	.	.	.	.	.	.
.	.	.	.	.	.	.	.	.
.	.	.	.	.	.	.	.	.
.	.	But	.	.	.	.	.	.
.	.	I	.	.	.	.	.	.
.	.	know	.	.	.	.	.	.
=11	=11	=11	=11	=11	=11	=11	=11	=11
1.IVm7	F:7	_	_	.	36.28	newline	voice	1.F 1.a 1.cc 1.ee
.	.	.	.	.	.	.	.	.
.	.	.	.	.	.	.	.	.
.	.	.	_	.	.	.	.	.
.	.	.	_	.	.	.	.	.
.	.	I	.	.	.	.	.	.
=12	=12	=12	=12	=12	=12	=12	=12	=12
1.II7	D:7	_	_	.	39.667	.	voice	1.D 1.f# 1.a 1.cc
.	.	_	.	.	.	.	.	.
.	.	_	.	.	.	.	.	.
.	.	_	.	.	.	.	.	.
.	.	_	_	.	.	.	.	.
.	.	know	.	.	.	.	.	.
.	.	.	.	.	.	.	.	.
.	.	.	.	.	.	.	.	.
.	.	.	.	.	.	.	.	.
.	.	.	.	.	.	.	.	.
=13	=13	=13	=13	=13	=13	=13	=13	=13
1.V7	G:7	.	.	.	43.054	newline	voice	1.G 1.b 1.dd 1.ff
.	.	.	.	.	.	.	.	.
.	.	you're	.	.	.	.	.	.
.	.	gon-	.	.	.	.	.	.
.	.	-na	.	.	.	.	.	.
.	.	miss	.	.	.	.	.	.
.	.	me	.	.	.	.	.	.
.	.	_	.	.	.	.	.	.
=14	=14	=14	=14	=14	=14	=14	=14	=14
*	*	*	*	*	*	*	*	*
1.Im7	C:7	.	.	.	46.146	.	voice	1.C 1.e 1.g 1.b
=15	=15	=15	=15	=15	=15	=15	=15	=15
*>Letter>B	*>Letter>B	*>Letter>B	*>Letter>B	*>Letter>B	*>Letter>B	*>Letter>B	*>Letter>B	*>Letter>B
*>Label>Verse	*>Label>Verse	*>Label>Verse	*>Label>Verse	*>Label>Verse	*>Label>Verse	*>Label>Verse	*>Label>Verse	*>Label>Verse
1.vi	A:min	.	.	.	49.238	newline	voice	1.A 1.cc 1.ee
.	.	I	.	.	.	.	.	.
.	.	don't	.	.	.	.	.	.
.	.	_	.	.	.	.	.	.
.	.	mind!	.	.	.	.	.	.
.	.	_	.	.	.	.	.	.
.	.	_	.	.	.	.	.	.
.	.	_	I	.	.	.	.	.
.	.	.	don't	.	.	.	.	.
.	.	.	mind!	.	.	.	.	.
.	.	.	.	.	.	.	.	.
.	.	.	.	.	.	.	.	.
=16	=16	=16	=16	=16	=16	=16	=16	=16
*	*	*	*	*	*	*	*	*
1.Im7	C:7	.	.	.	52.712	.	voice	1.C 1.e 1.g 1.b
.	.	.	.	.	.	.	.	.
.	.	Your	.	.	.	.	.	.
.	.	love	.	.	.	.	.	.
.	.	_	.	.	.	.	.	.
.	.	_	.	.	.	.	.	.
.	.	sick	.	.	.	.	.	.
.	.	soul	.	B	.	.	.	.
.	.	_	.	.	.	.	.	.
.	.	_	.	.	.	.	.	.
=17	=17	=17	=17	=17	=17	=17	=17	=17
*	*	*	*	*	*	*	*	*
1.vi	A:min	.	.	.	56.185	newline	voice	1.A 1.cc 1.ee
.	.	I	.	.	.	.	.	.
.	.	don't	.	.	.	.	.	.
.	.	_	.	.	.	.	.	.
.	.	mind!	.	.	.	.	.	.
.	.	_	.	.	.	.	.	.
.	.	_	.	.	.	.	.	.
.	.	_	.	.	.	.	.	.
.	.	.	I	.	.	.	.	.
.	.	.	don't	.	.	.	.	.
.	.	.	mind	.	.	.	.	.
.	.	.	.	.	.	.	.	.
.	.	.	.	.	.	.	.	.
=18	=18	=18	=18	=18	=18	=18	=18	=18
*	*	*	*	*	*	*	*	*
1.Im7	C:7	.	.	.	59.596	.	voice	1.C 1.e 1.g 1.b
.	.	.	.	.	.	.	.	.
.	.	It	.	.	.	.	.	.
.	.	can't	.	.	.	.	.	.
.	.	_	.	.	.	.	.	.
.	.	grow	.	.	.	.	.	.
.	.	cold	.	B	.	.	.	.
.	.	_	.	.	.	.	.	.
.	.	I	.	.	.	.	.	.
.	.	know	.	.	.	.	.	.
.	.	_	.	.	.	.	.	.
=19	=19	=19	=19	=19	=19	=19	=19	=19
1.IVm7	F:7	.	Yee	.	63.008	newline	voice	1.F 1.a 1.cc 1.ee
.	.	.	.	.	.	.	.	.
.	.	.	.	.	.	.	.	.
.	.	.	_	.	.	.	.	.
.	.	.	_	.	.	.	.	.
.	.	I	.	.	.	.	.	.
=20	=20	=20	=20	=20	=20	=20	=20	=20
1.II7	D:7	_	_	.	66.475	.	voice	1.D 1.f# 1.a 1.cc
.	.	_	.	.	.	.	.	.
.	.	_	.	.	.	.	.	.
.	.	_	.	.	.	.	.	.
.	.	_	.	.	.	.	.	.
.	.	know	.	.	.	.	.	.
.	.	.	.	.	.	.	.	.
.	.	.	.	.	.	.	.	.
.	.	.	.	.	.	.	.	.
.	.	.	.	.	.	.	.	.
=21	=21	=21	=21	=21	=21	=21	=21	=21
1.V7	G:7	.	.	.	69.943	newline	voice	1.G 1.b 1.dd 1.ff
.	.	.	.	.	.	.	.	.
.	.	.	.	.	.	.	.	.
.	.	You	.	.	.	.	.	.
.	.	gon-	.	.	.	.	.	.
.	.	-na	.	.	.	.	.	.
.	.	miss	.	.	.	.	.	.
.	.	me	.	.	.	.	.	.
.	.	_	.	.	.	.	.	.
=22	=22	=22	=22	=22	=22	=22	=22	=22
1.Im7	C:7	.	.	.	73.033	.	voice	1.C 1.e 1.g 1.b
=23	=23	=23	=23	=23	=23	=23	=23	=23
*>Letter>A	*>Letter>A	*>Letter>A	*>Letter>A	*>Letter>A	*>Letter>A	*>Letter>A	*>Letter>A	*>Letter>A
*>Label>Interlude	*>Label>Interlude	*>Label>Interlude	*>Label>Interlude	*>Label>Interlude	*>Label>Interlude	*>Label>Interlude	*>Label>Interlude	*>Label>Interlude
1.vi	A:min	.	Yee	.	76.124	newline	voice	1.A 1.cc 1.ee
.	.	.	_	.	.	.	.	.
.	.	.	_	.	.	.	.	.
=24	=24	=24	=24	=24	=24	=24	=24	=24
1.Im7	C:7	.	_	.	79.468	.	voice	1.C 1.e 1.g 1.b
.	.	.	_	.	.	.	.	.
.	.	.	.	.	.	.	.	.
.	.	.	.	.	.	.	.	.
.	.	Yeah,	.	.	.	.	.	.
.	.	yeah,	.	.	.	.	.	.
.	.	yeah	.	.	.	.	.	.
.	.	.	.	.	.	.	.	.
.	.	.	.	.	.	.	.	.
=25	=25	=25	=25	=25	=25	=25	=25	=25
1.vi	A:min	.	Yee	.	82.811	newline	voice	1.A 1.cc 1.ee
.	.	.	_	.	.	.	.	.
.	.	.	_	.	.	.	.	.
=26	=26	=26	=26	=26	=26	=26	=26	=26
1.Im7	C:7	.	_	.	86.173	.	voice	1.C 1.e 1.g 1.b
.	.	Some-	.	.	.	.	.	.
.	.	-where	_	.	.	.	.	.
.	.	down	.	.	.	.	.	.
.	.	the	.	.	.	.	.	.
.	.	line	.	C	.	.	.	.
.	.	_	.	.	.	.	.	.
.	.	.	.	.	.	.	.	.
.	.	.	.	.	.	.	.	.
=27	=27	=27	=27	=27	=27	=27	=27	=27
1.IVm7	F:7	.	Yee	.	89.536	newline	voice	1.F 1.a 1.cc 1.ee
.	.	.	_	.	.	.	.	.
.	.	.	_	.	.	.	.	.
=28	=28	=28	=28	=28	=28	=28	=28	=28
1.II7	D:7	.	_	.	92.977	.	voice	1.D 1.f# 1.a 1.cc
.	.	Mmm	.	.	.	.	.	.
.	.	_	.	.	.	.	.	.
.	.	.	.	.	.	.	.	.
.	.	_	.	.	.	.	.	.
.	.	.	.	.	.	.	.	.
.	.	.	.	.	.	.	.	.
.	.	.	.	.	.	.	.	.
=29	=29	=29	=29	=29	=29	=29	=29	=29
1.V7	G:7	.	.	.	96.419	newline	guitar	1.G 1.b 1.dd 1.ff
=30	=30	=30	=30	=30	=30	=30	=30	=30
1.Im7	C:7	.	.	.	99.672	.	guitar	1.C 1.e 1.g 1.b
=31	=31	=31	=31	=31	=31	=31	=31	=31
*>Letter>B	*>Letter>B	*>Letter>B	*>Letter>B	*>Letter>B	*>Letter>B	*>Letter>B	*>Letter>B	*>Letter>B
*>Label>Verse	*>Label>Verse	*>Label>Verse	*>Label>Verse	*>Label>Verse	*>Label>Verse	*>Label>Verse	*>Label>Verse	*>Label>Verse
1.vi	A:min	.	.	.	102.924	newline	voice	1.A 1.cc 1.ee
.	.	I	.	.	.	.	.	.
.	.	don't	.	.	.	.	.	.
.	.	_	.	.	.	.	.	.
.	.	mind!	.	C	.	.	.	.
.	.	_	.	.	.	.	.	.
.	.	_	.	.	.	.	.	.
.	.	_	.	.	.	.	.	.
.	.	.	I	.	.	.	.	.
.	.	.	don't	.	.	.	.	.
.	.	.	mind	.	.	.	.	.
.	.	.	.	.	.	.	.	.
.	.	.	.	.	.	.	.	.
=32	=32	=32	=32	=32	=32	=32	=32	=32
1.Im7	C:7	.	.	.	106.406	.	voice	1.C 1.e 1.g 1.b
.	.	.	.	.	.	.	.	.
.	.	This	.	.	.	.	.	.
.	.	is	.	.	.	.	.	.
.	.	all	.	.	.	.	.	.
.	.	of	.	.	.	.	.	.
.	.	_	.	.	.	.	.	.
.	.	my	.	.	.	.	.	.
.	.	song	.	D	.	.	.	.
.	.	_	.	.	.	.	.	.
.	.	.	.	.	.	.	.	.
=33	=33	=33	=33	=33	=33	=33	=33	=33
1.vi	A:min	.	.	.	109.887	newline	voice	1.A 1.cc 1.ee
.	.	I	.	.	.	.	.	.
.	.	don't	.	.	.	.	.	.
.	.	_	.	.	.	.	.	.
.	.	mind!	.	.	.	.	.	.
.	.	_	.	.	.	.	.	.
.	.	_	.	.	.	.	.	.
.	.	_	.	.	.	.	.	.
.	.	.	I	.	.	.	.	.
.	.	.	don't	.	.	.	.	.
.	.	.	mind	.	.	.	.	.
.	.	.	.	.	.	.	.	.
.	.	.	.	.	.	.	.	.
.	.	.	.	.	.	.	.	.
=34	=34	=34	=34	=34	=34	=34	=34	=34
1.Im7	C:7	.	.	.	113.339	.	voice	1.C 1.e 1.g 1.b
.	.	Good-	.	.	.	.	.	.
.	.	-bye,	.	.	.	.	.	.
.	.	_	.	.	.	.	.	.
.	.	_	.	.	.	.	.	.
.	.	so	.	.	.	.	.	.
.	.	long	.	D	.	.	.	.
.	.	_	.	.	.	.	.	.
.	.	_	.	.	.	.	.	.
.	.	.	.	.	.	.	.	.
.	.	.	.	.	.	.	.	.
.	.	But	.	.	.	.	.	.
.	.	I	.	.	.	.	.	.
.	.	know	.	.	.	.	.	.
=35	=35	=35	=35	=35	=35	=35	=35	=35
1.IVm7	F:7	_	Yee	.	116.791	newline	voice	1.F 1.a 1.cc 1.ee
.	.	.	.	.	.	.	.	.
.	.	.	.	.	.	.	.	.
.	.	.	_	.	.	.	.	.
.	.	.	_	.	.	.	.	.
.	.	I	.	.	.	.	.	.
=36	=36	=36	=36	=36	=36	=36	=36	=36
1.II7	D:7	_	_	.	120.34	.	voice	1.D 1.f# 1.a 1.cc
.	.	_	.	.	.	.	.	.
.	.	know...	.	.	.	.	.	.
.	.	.	.	.	.	.	.	.
.	.	.	.	.	.	.	.	.
=37	=37	=37	=37	=37	=37	=37	=37	=37
1.V7	G:7	.	.	.	123.888	newline	voice	1.G 1.b 1.dd 1.ff
.	.	.	.	.	.	.	.	.
.	.	You	.	.	.	.	.	.
.	.	gon-	.	.	.	.	.	.
.	.	-na	.	.	.	.	.	.
.	.	miss	.	.	.	.	.	.
.	.	me	.	.	.	.	.	.
.	.	_	.	.	.	.	.	.
=38	=38	=38	=38	=38	=38	=38	=38	=38
1.Im7	C:7	.	.	.	127.047	.	voice	1.C 1.e 1.g 1.b
=39	=39	=39	=39	=39	=39	=39	=39	=39
*>Letter>A	*>Letter>A	*>Letter>A	*>Letter>A	*>Letter>A	*>Letter>A	*>Letter>A	*>Letter>A	*>Letter>A
*>Label>Interlude	*>Label>Interlude	*>Label>Interlude	*>Label>Interlude	*>Label>Interlude	*>Label>Interlude	*>Label>Interlude	*>Label>Interlude	*>Label>Interlude
1.vi	A:min	.	Oh	.	130.207	newline	voice	1.A 1.cc 1.ee
.	.	.	.	.	.	.	.	.
.	.	Good-	.	.	.	.	.	.
.	.	-bye,	.	.	.	.	.	.
.	.	_	_	.	.	.	.	.
.	.	so	.	.	.	.	.	.
.	.	_	.	.	.	.	.	.
.	.	long!	_	.	.	.	.	.
.	.	_	.	.	.	.	.	.
.	.	_	.	.	.	.	.	.
.	.	.	.	.	.	.	.	.
=40	=40	=40	=40	=40	=40	=40	=40	=40
*	*	*	*	*	*	*	*	*
1.Im7	C:7	.	_	.	133.623	.	voice	1.C 1.e 1.g 1.b
.	.	Mm,	_	.	.	.	.	.
.	.	no,	.	.	.	.	.	.
.	.	no,	.	.	.	.	.	.
.	.	.	.	.	.	.	.	.
.	.	no,	.	.	.	.	.	.
.	.	I	.	.	.	.	.	.
.	.	don't	.	.	.	.	.	.
.	.	mind	.	.	.	.	.	.
.	.	_	.	.	.	.	.	.
.	.	_	.	.	.	.	.	.
.	.	.	.	.	.	.	.	.
=41	=41	=41	=41	=41	=41	=41	=41	=41
*	*	*	*	*	*	*	*	*
1.vi	A:min	.	Oh	.	137.04	newline	voice	1.A 1.cc 1.ee
.	.	.	.	.	.	.	.	.
.	.	A'-	.	.	.	.	.	.
.	.	-good-	.	.	.	.	.	.
.	.	-bye,	.	.	.	.	.	.
.	.	_	.	.	.	.	.	.
.	.	so	_	.	.	.	.	.
.	.	_	.	.	.	.	.	.
.	.	long!	.	.	.	.	.	.
.	.	_	.	.	.	.	.	.
.	.	_	.	.	.	.	.	.
.	.	_	_	.	.	.	.	.
.	.	.	.	.	.	.	.	.
=42	=42	=42	=42	=42	=42	=42	=42	=42
1.Im7	C:7	.	_	.	140.269	.	voice	1.C 1.e 1.g 1.b
.	.	.	_	.	.	.	.	.
.	.	.	.	.	.	.	.	.
.	.	.	.	.	.	.	.	.
=43	=43	=43	=43	=43	=43	=43	=43	=43
1.vi	A:min	.	Oh!	.	143.499	newline	voice	1.A 1.cc 1.ee
1r;	N	.	.	.	148.724	.	r	1r;
1r;	N	.	.	.	150.909	.	r	1r;
*-	*-	*-	*-	*-	*-	*-	*-	*-
!!!BillboardChartDate: 1961/07/03
!!!BillboardPeak: 47
!!!BillboardWeeksOnChart: 8
!!!COC: James Brown
!!!ENC: Nathaniel Condit-Schultz
!!!EST: Awating manual error checking and editing.
!!!OTL: I Don't Mind
!!!RDF**harte: Chris Harte's syntax, used by MIREX
!!!RDF**harmony: **recip + pitch class of root + harmonic quality
!!!RDF**leadinstrument: original McGill primary instrumentation annotation
!!!RDF**phrase: newline = linebreak in original McGill transcription
!!!RDF**timestamp: McGill audio timestamp in seconds
!!!RDT: 2017/01/12/
!!!SampleActualRank: 57
!!!SampleID#: 0003
!!!SampleTargetRank: 56
!!!MBID: 17666598-11e0-4524-9410-16906c027524
